icon/gi/abstract-051.svg

<svg xmlns="http://www.w3.org/2000/svg" viewBox="0 0 512 512" height="1em" width="1em">
  <path d="M0 0h512v512H0z"/>
  <path fill="#fff" d="m124.6937,21c-57.2511,0-103.6937,47.4844-103.6937,106.0438s46.4426,105.8969 103.6937,105.8969c12.9326,0 25.3034-2.4644 36.7188-6.9031l155.8346,80.7813c-7.7593,7.2819-14.3702,15.7433-19.6818,25.1156h62.1284c28.7142,0 51.7,23.5043 51.7,52.875s-22.9858,53.1688-51.7,53.1688h-62.1284c17.9357,31.648 51.4049,53.0218 89.7409,53.0218 57.2512,0 103.6938-47.6313 103.6938-106.1906s-46.4426-105.8969-103.6938-105.8969c-12.9809,0-25.4147,2.4329-36.8658,6.9032l-155.8342-80.7813c7.7917-7.2981 14.4995-15.7124 19.8284-25.1157h-62.1283c-28.7142,0-51.7-23.5043-51.7-52.8749s22.9858-53.1688 51.7-53.1688h62.1283c-17.9357-31.6481-51.4048-52.875-89.7409-52.875zm41.4188,68.8844c-22.9158,0-41.4188,16.6375-41.4188,37.1594s18.503,37.0124 41.4188,37.0124h283.4688c22.9162,0 41.4187-16.4907 41.4187-37.0124s-18.5025-37.1594-41.4187-37.1594h-283.4688zm-103.6938,257.9125c-22.9163,0-41.4187,16.4907-41.4187,37.0125s18.5025,37.3062 41.4187,37.3062h283.4688c22.9157,0 41.4187-16.7845 41.4187-37.3062s-18.503-37.0125-41.4187-37.0125h-283.4688z"/>
</svg>

<svg xmlns="http://www.w3.org/2000/svg" viewBox="0 0 512 512"><path d="M0 0h512v512H0z"/><path fill="#fff" d="M124.694 21C67.443 21 21 68.484 21 127.044S67.443 232.94 124.694 232.94c12.932 0 25.303-2.465 36.719-6.903l155.834 80.78c-7.76 7.283-14.37 15.744-19.682 25.117h62.129c28.714 0 51.7 23.504 51.7 52.874s-22.986 53.17-51.7 53.17h-62.129C315.501 469.625 348.97 491 387.306 491 444.557 491 491 443.37 491 384.81s-46.443-105.897-103.694-105.897c-12.98 0-25.414 2.432-36.866 6.903l-155.834-80.782c7.792-7.298 14.5-15.712 19.829-25.115h-62.129c-28.714 0-51.7-23.505-51.7-52.875s22.986-53.169 51.7-53.169h62.129C196.499 42.227 163.03 21 124.694 21zm41.419 68.884c-22.916 0-41.42 16.638-41.42 37.16s18.504 37.012 41.42 37.012H449.58c22.916 0 41.419-16.49 41.419-37.012s-18.503-37.16-41.419-37.16H166.112zM62.419 347.797c-22.917 0-41.419 16.49-41.419 37.012s18.503 37.307 41.419 37.307h283.469c22.915 0 41.418-16.785 41.418-37.307s-18.503-37.012-41.418-37.012H62.417z"/></svg>
